X:1
T: The Loch of Lumgair
C:
R:Jig
Q:180
K:A
M:6/8
L:1/16
E2|C2E2A2 c2B2A2|d6F4D2|C2E2A2 A2B2c2|c6B4E2|C2E2A2 c2B2A2|d4F2 B2A2F2|G2B2e2 d2c2B2|A6A4E2|
C2E2A2 c2B2A2|d6F4D2|C2E2A2 A2B2c2|c6B4E2|C2E2A2 c2B2A2|d4F2 B2A2F2|G2B2e2 d2c2B2|A6A4c2|
e2c2A2 A2E2C2|D2F2A2 d4B2|c2e2c2 A2G2A2|B2G2E2 E2c2d2|e2c2A2 A2E2C2|D2F2A2 d4B2|c2e2c2 d2B2G2|A6A4c2|
e2c2A2 A2E2C2|D2F2A2 d4B2|c2e2c2 A2G2A2|B2G2E2 E2C2B,2|C2E2A2 c2B2A2|d4F2 B2A2F2|G2B2e2 d2c2B2|A6A4||
